X:268
T:Happy One-Step
M:4/4
L:1/8
Q:1/8=120
K:G
d>G B>d- d>G B>d|g>c e>g- g>a g>e|d>G B>d- d>B- B>A|
A>G G>E D2 G>B|d>G B>d- d>G B>d|g>c e>g- g>a g>e|
d>G B>G A>G E>D|[1 E>G G>G- G2 A>G:|2 E>G G>G- G2 B>d||
b>d b>b- b>d b>d|a>d a>a- a>d a>d|b>d b>b- b>d b>d|
c'>d c'>c'- c'>d c'>d|b>d b>b- b>d b>d|a>d a>a- a>d a>d|
b>d b>b- b>d b>d|c'>d b>d- a>d g>e|d>G B>d- d>G B>d|
g>c e>g- g>a g>e|d>G B>d- d>B- B>A|A>G G>E D2 G>B|
d>G B>d- d>G B>d|g>c e>g- g>a g>e|d>G B>G A>G E>D|E>G G>G- G4|
d2 g f2 e | ded Bdg |
